dist/svg/fontsize.svg

<!-- Generated by Trend Micro Style Portal -->
<svg version="1.1" xmlns="http://www.w3.org/2000/svg" width="16" height="16" viewBox="0 0 16 16">
  <title>fontsize</title>
  <path fill="rgb(34,34,34)" d="M1 8.5h5v1.449h-0.597l-0.148-0.877-0.127-0.104h-1.042v4.459l0.148 0.128 0.563 0.044v0.4h-2.595v-0.4l0.567-0.044 0.144-0.128v-4.459h-1.037l-0.131 0.104-0.148 0.877h-0.597zM5 3h10v3h-1l-0.49-1.855-0.254-0.145h-2.256v9l0.469 0.111 1.127 0.089v0.8h-5.191v-0.8l1.135-0.089 0.46-0.111v-9h-2.247l-0.263 0.145-0.49 1.855h-1z"></path>
</svg>

<svg width="16" height="16" viewBox="0 0 16 16" fill="rgb(34, 34, 34)" xmlns="http://www.w3.org/2000/svg"><title>fontsize</title><path d="M1 8.5H6V9.949H5.403L5.255 9.072L5.128 8.968H4.086V13.427L4.234 13.555L4.797 13.599V13.999H2.202V13.599L2.769 13.555L2.913 13.427V8.968H1.876L1.745 9.072L1.597 9.949H1V8.5ZM5 3H15V6H14L13.51 4.145L13.256 4H11V13L11.469 13.111L12.596 13.2V14H7.405V13.2L8.54 13.111L9 13V4H6.753L6.49 4.145L6 6H5V3Z" fill="rgb(34, 34, 34)" fill-opacity="1.00"/></svg>
